X:1
T:Title
%%score { ( 1 3 ) | ( 2 4 ) }
L:1/8
M:4/4
K:Db
V:1 treble nm="Grand Piano"
V:3 treble 
V:2 bass 
V:4 bass 
V:1
 z4 z2[Q:1/4=100] [FA][EG] | FF F2 F2 F[EG] | [FA]2 [FA][FA] [FA]2 [FA]2 | B2 BB c2 BB | %4
 [FA]6 [FA][EG] | FF F2 F2 F[EG] | [FA]2 [FA][FA] [FA]2 [FA]2 | B2 BB c2 Bc | [Fd]6 z2 | %9
 [Gc]2- [EG-c-]>[EG-c-] [EGc]2 G>G | [Gc]2- [EG-c-]>[EG-c-] [EGc]2 z2 | [GB]6 z2 | [FA]6 z2 | %13
 [Fd]2 [Gc][Gc] [Ad]2 [FA]2 |[M:9/8] z3 z B2- B3 |[M:4/4] z2 d2[K:bass][K:treble] z4 |[M:3/4] d6 |] %17
V:2
 z4 z2 [D,A,][D,A,] | [D,A,D][D,A,D] [D,A,D]2 [D,A,D]2 [D,A,D][D,A,] | %2
 [D,D]2 [D,D][D,D] [D,D]2 [D,D]2 | [G,DG]2 [G,DG][G,DG] [G,DG]2 [G,DG][G,DG] | %4
 [D,D]6 [D,A,][D,A,] | [D,A,D][D,A,D] [D,A,D]2 [D,A,D]2 [D,A,D][D,A,] | %6
 [D,D]2 [D,D][D,D] [D,D]2 [D,D]2 | [G,DG]2 [G,DG][G,DG] [A,G]2 [A,G][A,G] | [D,A,]6 z2 | %9
 A,,2 A,,>A,, A,,2 E>E | A,,2 A,,>A,, A,,2 z2 | G,2 G,>G, G,2[K:treble] A>G | D,2 D,>D, D,2 z2 | %13
 [D,A,]2 [E,A,][E,A,] [F,A,]2 [D,D]2 |[M:9/8] [B,D][B,D][F,_CD] [F,CD] [B,D]2 D3 | %15
[M:4/4][K:treble] [A,DF]2 .[F,A,F]2[K:bass] [A,,A,]2 [A,,A,][A,,A,] |[M:3/4] A,4 z2 |] %17
V:3
 x8 | x8 | x8 | x8 | x8 | x8 | x8 | x8 | x8 | E2 z2 z4 | E2 z2 z4 | D2 D>D D2 c>B | D2 D>D D2 z2 | %13
 x8 |[M:9/8] GGA .A3 G3 |[M:4/4] A2 z[K:bass] D,[K:treble] [Ec]2 [GB][Gc] | %16
[M:3/4] F2- [F-G][FG] F2 |] %17
V:4
 x8 | x8 | x8 | x8 | x8 | x8 | x8 | x8 | x8 | x8 | x8 | x6[K:treble] x2 | x8 | x8 | %14
[M:9/8] z3 z G,2- G,3 |[M:4/4][K:treble] x4[K:bass] x4 |[M:3/4] D,2- [D,-B,][D,-B,] [D,A,]2 |] %17

